!!!!SEGMENT: pl-wtm--r-2510_hertz-michal--fuga-na-kwartet-smyczkowy.krn
!!!cenid: 18xx:3082
!!!COM: Hertz, Michał
!!!COM-rismID:
!!!CDT: 1844/09/28-~1918
!!!CNT: Polish
!!!OTL: Fuga na kwartet smyczkowy
!!!PDT:
!!!AGN:
!!!SMS-siglum: PL-Wtm
!!!SMS-shelfmark: R 2510
!!!SMS-shelfwork: W
!!!SMS-variant:
!!!SMS-altvar:
!!!NIFC-rismSourceID: 1001082827
!!!NIFC-islandoraID:
!!!URL-pdf-islandora:
!!!URL-scan:
!!!ONB-nifc:
!!!OMD: Allegro. [quarter] = 108
!!!AIN: 1 cello 1 viola 2 violn
!!!key:
**kern	**dynam	**kern	**dynam	**kern	**dynam	**kern	**dynam
*group1	*	*group1	*	*group1	*	*group1	*
*part4	*part4	*part3	*part3	*part2	*part2	*part1	*part1
*staff4	*	*staff3	*	*staff2	*	*staff1	*
*Icello	*	*Iviola	*	*Ivioln	*	*Ivioln	*
*I"[Violoncello]	*	*I"[Viola]	*	*I"[Violino 2]	*	*I"[Violino 1]	*
*clefF4	*	*clefC3	*	*clefG2	*	*clefG2	*
*k[b-]	*	*k[b-]	*	*k[b-]	*	*k[b-]	*
*d:	*	*d:	*	*d:	*	*d:	*
*M3/4	*	*M3/4	*	*M3/4	*	*M3/4	*
=1	=1	=1	=1	=1	=1	=1	=1
!	!LO:DY:rj	!	!	!	!	!	!
8D'>\	f	2.r	.	2.r	.	2.r	.
!LO:TX:t=P:problem=all\right&colon; global	!	!	!	!	!	!	!
4E^>\	.	.	.	.	.	.	.
4F^>\	.	.	.	.	.	.	.
16G'>\LL	.	.	.	.	.	.	.
16A'>\JJ	.	.	.	.	.	.	.
=2	=2	=2	=2	=2	=2	=2	=2
16B-'>\LL	.	2.r	.	2.r	.	2.r	.
(>16d\	.	.	.	.	.	.	.
16B-\	.	.	.	.	.	.	.
16A\JJ	.	.	.	.	.	.	.
(>16G\LL)	.	.	.	.	.	.	.
16BB-\	p	.	.	.	.	.	.
16G\	.	.	.	.	.	.	.
16F\JJ	.	.	.	.	.	.	.
16E\LL	.	.	.	.	.	.	.
16d\	.	.	.	.	.	.	.
16c\	.	.	.	.	.	.	.
16B-\JJ	.	.	.	.	.	.	.
=3	=3	=3	=3	=3	=3	=3	=3
16A\LL)	.	2.r	.	2.r	.	2.r	.
(>16c\	.	.	.	.	.	.	.
16A\	f	.	.	.	.	.	.
16G\JJ	.	.	.	.	.	.	.
16F\LL)	.	.	.	.	.	.	.
(>16AA\	.	.	.	.	.	.	.
16F\	p	.	.	.	.	.	.
16E\JJ	.	.	.	.	.	.	.
16D\LL	.	.	.	.	.	.	.
16c\	.	.	.	.	.	.	.
16B-\	.	.	.	.	.	.	.
16A\JJ	.	.	.	.	.	.	.
=4	=4	=4	=4	=4	=4	=4	=4
16G\LL)	.	2.r	.	2.r	.	2.r	.
(>16B-\	.	.	.	.	.	.	.
16G\	f	.	.	.	.	.	.
16F\JJ	.	.	.	.	.	.	.
16E\LL	.	.	.	.	.	.	.
16GG\	.	.	.	.	.	.	.
(>16E\)	p	.	.	.	.	.	.
16D\JJ	.	.	.	.	.	.	.
16C#X\LL	.	.	.	.	.	.	.
16E\	.	.	.	.	.	.	.
16A\	.	.	.	.	.	.	.
16G\JJ	.	.	.	.	.	.	.
!!LO:LB:g=original
=5	=5	=5	=5	=5	=5	=5	=5
16F\LL)	.	2.r	.	2.r	.	2.r	.
(>16E\	.	.	.	.	.	.	.
16D\	.	.	.	.	.	.	.
16C#X\JJ	.	.	.	.	.	.	.
16D\LL)	.	.	.	.	.	.	.
(>16Cn\	.	.	.	.	.	.	.
16BBn\	.	.	.	.	.	.	.
16AA\JJ	.	.	.	.	.	.	.
16GG#X/LL	.	.	.	.	.	.	.
16EE/	<	.	.	.	.	.	.
16FF#X/	.	.	.	.	.	.	.
16GG#/JJ	.	.	.	.	.	.	.
=6	=6	=6	=6	=6	=6	=6	=6
8AA/)	.	8A'>/	f	2.r	.	2.r	.
8r	[	4Bn^>/	.	.	.	.	.
(>8.A\L	p	.	.	.	.	.	.
.	.	4c^>/	.	.	.	.	.
16G\Jk	.	.	.	.	.	.	.
16F\LL	.	.	.	.	.	.	.
16E\	.	.	.	.	.	.	.
!LO:TX:t=P:problem=16\left	!	!LO:TX:t=P:problem=all\right&colon; global	!	!	!	!	!
16D\	.	16d'>\LL	.	.	.	.	.
16C\JJ	.	16e'>\JJ	.	.	.	.	.
=7	=7	=7	=7	=7	=7	=7	=7
!LO:TX:t=P:problem=8\left	!	!	!	!	!	!	!
8D\L)	.	16f'>\LL	.	2.r	.	2.r	.
.	.	(>16a\	.	.	.	.	.
(>16d\L	.	16f\	.	.	.	.	.
!	!	!LO:TX:t=P:problem=16\left	!	!	!	!	!
16c\JJ	.	16e\JJ	.	.	.	.	.
8Bn\L)	.	16d\LL)	.	.	.	.	.
.	.	(>16F\	.	.	.	.	.
(>16B\L	.	16d\	p	.	.	.	.
16A\JJ	.	16c\JJ	.	.	.	.	.
8G\L)	.	16Bn\LL	.	.	.	.	.
.	.	16a\	.	.	.	.	.
!LO:TX:t=P:problem=8\left	!	!	!	!	!	!	!
8BBn'>\J	.	16g\	.	.	.	.	.
.	.	16f\JJ	.	.	.	.	.
=8	=8	=8	=8	=8	=8	=8	=8
8C'>\L	.	16e\LL)	.	2.r	.	2.r	.
.	.	(>16g\	f	.	.	.	.
(>16c\L	.	16e\	.	.	.	.	.
16Bn\JJ	.	16d\JJ	.	.	.	.	.
8A\L)	.	16c\LL)	.	.	.	.	.
.	.	(>16E\	.	.	.	.	.
(>16A\L	.	16c\	p	.	.	.	.
16G\JJ	.	16Bn\JJ	.	.	.	.	.
8F\L)	.	16A\LL	.	.	.	.	.
!	!	!LO:TX:t=P:problem=16\left	!	!	!	!	!
.	.	16g\	.	.	.	.	.
8AA'>\J	.	16f\	.	.	.	.	.
.	.	16e\JJ	.	.	.	.	.
!!LO:LB:g=original
=9	=9	=9	=9	=9	=9	=9	=9
!LO:TX:t=P:problem=all\left&colon; global	!	!LO:TX:t=P:problem=brak zakończenia łuku (początek pięciolinii)	!	!	!	!	!
8BBn\L	.	16d\LL)	.	2.r	.	2.r	.
.	.	(>16f\	f	.	.	.	.
(>16D\L	.	16d\	.	.	.	.	.
16E\JJ	.	16c\JJ	.	.	.	.	.
8F\L)	.	16Bn/LL)	.	.	.	.	.
.	.	(<16D/	.	.	.	.	.
(>8D\	.	16B/	.	.	.	.	.
.	.	16A/JJ)	p	.	.	.	.
8E\)	.	(>16G#X\LL	.	.	.	.	.
.	.	16B\	.	.	.	.	.
8GG#X'>\J	.	16e\	.	.	.	.	.
!	!	!LO:TX:t=P:problem=16\left&colon; global	!	!	!	!	!
.	.	16d\JJ	.	.	.	.	.
=10	=10	=10	=10	=10	=10	=10	=10
8AA'</L	.	16c\LL)	.	2.r	.	2.r	.
.	.	(>16Bn\	.	.	.	.	.
(<8C/	.	16A\	.	.	.	.	.
.	.	16G#X\JJ	.	.	.	.	.
!	!	!LO:TX:t=P:problem=16\right&colon; global	!	!	!	!	!
8C#X/)	.	16A\LL	.	.	.	.	.
.	.	16B\	<	.	.	.	.
8AA'</J	.	16c#X\	.	.	.	.	.
.	.	16d\JJ	.	.	.	.	.
4A^>\	.	16e\LL	.	.	.	.	.
.	.	16f\	.	.	.	.	.
.	.	16g\	.	.	.	.	.
.	.	16e\JJ	.	.	.	.	.
=11	=11	=11	=11	=11	=11	=11	=11
!	!	!	!	!	!LO:DY:rj	!	!
8F\L	.	8a\)	[	8d'</	f	2.r	.
(>16F\L	.	8r	.	4e^</	.	.	.
16E\JJ	.	.	.	.	.	.	.
!	!	!	!LO:DY:rj	!	!	!	!
4.D\)	.	8A\L	p	.	.	.	.
.	.	(>16d\L	.	4f^</	.	.	.
.	.	16c\JJ)	.	.	.	.	.
.	.	(<16B-X/LL	.	.	.	.	.
.	.	16A/	.	.	.	.	.
!LO:TX:t=P:problem=all\right&colon; global	!	!	!	!	!	!	!
(>16E\LL	.	16G/	.	16g'</LL	.	.	.
16D\JJ	.	16F/JJ)	.	16a'</JJ	.	.	.
=12	=12	=12	=12	=12	=12	=12	=12
8GG/)	.	8G\L	.	16b-'>\LL	.	2.r	.
.	.	.	.	(>16dd\	.	.	.
4G\	.	(>16g\L	.	16b-\	.	.	.
!	!	!	!	!LO:TX:t=P:problem=16\right	!	!	!
.	.	16f\JJ	.	16a\JJ	.	.	.
.	.	8e\L)	.	16g/LL)	.	.	.
.	.	.	.	(>16B-/	.	.	.
4C/	.	(>16e\L	.	16g/	p	.	.
.	.	16d\JJ	.	16f/JJ	.	.	.
!	!	!LO:TX:t=P:problem=8\left	!	!	!	!	!
.	.	8c\L)	.	16e\LL	.	.	.
.	.	.	.	16dd\	.	.	.
!	!	!	!	!LO:TX:t=P:problem=16\right	!	!	!
[<8CC/	.	8E\J	.	16cc\	.	.	.
!	!	!	!	!LO:TX:t=P:problem=16\right	!	!	!
.	.	.	.	16b-\JJ)	.	.	.
!!LO:PB:g=original
=13	=13	=13	=13	=13	=13	=13	=13
!	!	!LO:TX:t=P:problem=all\right&colon; global	!	!LO:TX:t=P:problem=all\left&colon; global	!	!	!
8CC/L]	.	8F\L	.	16a\LL	.	2.r	.
.	.	.	.	(>16cc\	f	.	.
(<16DD/L	.	(>16f\L	.	16a\	.	.	.
16EE/JJ	.	16e\JJ	.	16g\JJ	.	.	.
8FF/L)	.	8d\L)	.	16f/LL)	.	.	.
.	.	.	.	(>16A/	.	.	.
!	!	!	!	!	!LO:DY:rj	!	!
8AA'</J	.	(>16d\L	.	16f/	p	.	.
.	.	16c\JJ	.	16e/JJ	.	.	.
4BB-'</	.	8B-/L)	.	16d\LL	.	.	.
.	.	.	.	16cc\	.	.	.
.	.	8D'/J	.	16b-\	.	.	.
.	.	.	.	16a\JJ	.	.	.
=14	=14	=14	=14	=14	=14	=14	=14
!	!	!	!	!	!LO:DY:rj	!	!
4C'</	.	8E'</L	.	16g\LL)	f	2.r	.
.	.	.	.	(>16b-\	.	.	.
.	.	(<16G/L	.	16g\	.	.	.
.	.	16A/JJ	.	16f\JJ	.	.	.
4C#X'</	.	8B-/L)	.	16e/LL)	.	.	.
!	!	!	!	!	!LO:DY:rj	!	!
.	.	.	.	(>16G/	p	.	.
.	.	(<8G/	.	16e/	.	.	.
.	.	.	.	16d/JJ	.	.	.
8r	.	8A/)	.	16c#X\LL	.	.	.
.	.	.	.	16b-\	.	.	.
8AA'</	.	(<8C#X/J	.	16a\	.	.	.
.	.	.	.	16g\JJ	.	.	.
=15	=15	=15	=15	=15	=15	=15	=15
!LO:TX:t=P:problem=8\middle	!	!	!	!	!	!	!
8BB-'>\L	.	8D/L)	.	16f/LL)	.	2.r	.
!	!	!	!	!	!LO:DY:rj	!	!
.	.	.	.	(<16e/	f	.	.
!LO:TX:t=P:problem=all\right&colon; global	!	!	!	!	!	!	!
(>16D\L	.	(<16F/L	.	16d/	.	.	.
16E\JJ	.	16G/JJ	.	16c#X/JJ	.	.	.
16F\LL	.	4A/)	.	16d/LL)	.	.	.
!	!	!	!	!	!LO:DY:rj	!	!
16E\	.	.	.	(<16cn/	p	.	.
16D\	.	.	.	16Bn/	.	.	.
16D#X\JJ	.	.	.	16A/JJ	.	.	.
8E\L)	.	8E'</L	.	16G#X/LL	.	.	.
.	.	.	.	16B/	.	.	.
8EE'\J	.	(<16F#X/L	.	16e/	.	.	.
.	.	16G#X/JJ)	.	16d/JJ	.	.	.
=16	=16	=16	=16	=16	=16	=16	=16
!	!	!	!	!	!	!	!LO:DY:rj
[>4AA/	.	(<16A/LL	.	8c/)	.	8a'</	f
.	.	16G/	.	.	.	.	.
!	!	!	!	!	!	!LO:TX:t=P:4\left:problem	!
.	.	16F/	.	8r	.	4b-^>\	.
.	.	16E/JJ)	.	.	.	.	.
!	!	!	!	!	!LO:DY:rj	!	!
(<16AA/LL]	.	8.F/L	.	8A'</L	p	.	.
16GG/	.	.	.	.	.	.	.
!	!	!	!	!	!	!LO:TX:t=P:problem=4\middle	!
16FF/	.	.	.	(<16a/L	.	4cc^>\	.
16EE/JJ	.	16G/Jk	.	16g/JJ	.	.	.
8.FF/L	.	[>4A/	.	16f/LL	.	.	.
.	.	.	.	16e/	.	.	.
!	!	!	!	!	!	!LO:TX:t=P:problem=16\right&colon; global	!
.	.	.	.	16d/	.	16dd'>\LL	.
16EE/Jk)	.	.	.	16c/JJ)	.	16ee'>\JJ	.
!!LO:LB:g=original
=17	=17	=17	=17	=17	=17	=17	=17
!	!	!LO:TX:t=P:problem=ligatura zaczyna się od góry, kończy od dołu	!	!LO:TX:t=P:problem=all\right&colon; global	!	!LO:TX:t=P:problem=all\left&colon; global	!
8DD/	.	4A/]	.	8d\L	.	16ff'>\LL	.
.	.	.	.	.	.	(>16aa\	.
8r	.	.	.	(>16dd\L	.	16ff\	f
.	.	.	.	16cc\JJ	.	16ee\JJ	.
!LO:TX:t=P:problem=4\middle	!	!LO:TX:t=P:problem=all\right&colon; global	!	!	!	!LO:TX:t=P:problem=all\right&colon; global	!
4G^>\	.	8Bn\L	.	8bn\L)	.	16dd\LL)	.
.	.	.	.	.	.	(>16f\	.
.	.	(>16B\L	.	(>16b\L	.	16dd\	p
.	.	16c\JJ	.	16a\JJ	.	16cc\JJ	.
[<4GG/	.	8d\L)	.	8g\L)	.	16bn\LL	.
.	.	.	.	.	.	16aa\	.
.	.	8D\J	.	8b\J	.	16gg\	.
.	.	.	.	.	.	16ff\JJ	.
=18	=18	=18	=18	=18	=18	=18	=18
8GG/L]	.	4.G/	.	8c\L	.	16ee\LL)	.
.	.	.	.	.	.	(>16gg\	.
(<16AA/L	.	.	.	(>16cc\L	.	16ee\	f
16BBn/JJ	.	.	.	16bn\JJ	.	16dd\JJ	.
4C/)	.	.	.	8a/L)	.	16cc\LL)	.
.	.	.	.	.	.	(>16e\	.
.	.	8E/	.	(<16a/L	.	16cc\	p
.	.	.	.	16g/JJ	.	16bn\JJ	.
!LO:TX:t=P:problem=all\left&colon; global	!	!	!	!	!	!LO:TX:t=P:problem=16\left	!
[>4D\	.	4F/	.	8f/L)	.	16a\LL	.
.	.	.	.	.	.	16gg\	.
!	!	!	!	!	!	!LO:TX:t=P:problem=16\left&colon; global	!
.	.	.	.	8a/J	.	16ff\	.
.	.	.	.	.	.	16ee\JJ	.
=19	=19	=19	=19	=19	=19	=19	=19
8D\L]	.	8G\L	.	8Bn/L	.	16dd\LL)	.
!	!	!	!	!	!	!LO:TX:t=P:problem=16\right	!
.	.	.	.	.	.	(>16ff\	f
(>16F\L	.	16Bn\L	.	(<16d/L	.	16dd\	.
16E\JJ	.	16c\JJ	.	16e/JJ	.	16cc\JJ	.
!LO:TX:t=P:problem=all\right&colon; global	!	!	!	!	!	!LO:TX:t=P:problem=all\right&colon; global	!
8D\L)	.	8d\L	.	8f/L)	.	16bn\LL)	.
.	.	.	.	.	.	(>16d\	.
8F\J	.	16G#X\L	.	(<8d/	.	16b\	p
.	.	16A\JJ	.	.	.	16a\JJ	.
4E\	.	8.B\L	.	8e/)	.	16g#X\LL	.
.	.	.	.	.	.	16b\	.
.	.	.	.	8g#X/J	.	16ee\	.
.	.	16e\Jk	.	.	.	16dd\JJ)	.
=20	=20	=20	=20	=20	=20	=20	=20
!	!	!LO:TX:t=P:problem=8\left	!	!	!	!	!
8A\	.	8e\	.	(<16a/LL	.	8cc\L	.
.	.	.	.	16g#X/	f	.	.
8r	.	8r	.	16a/	.	(>16a\L	p
.	.	.	.	16gn/JJ	.	16bn\JJ	.
4r	.	4r	.	16f/LL	.	8cc\L)	.
.	.	.	.	16e/	.	.	.
.	.	.	.	16d/	.	(>16dd\L	.
.	.	.	.	16c/JJ	.	16ee\JJ	.
!	!	!	!	!	!	!LO:TX:t=P:problem=8\left	!
4r	.	4r	.	16d/LL	.	8ff\L)	.
.	.	.	.	16e/	.	.	.
.	.	.	.	16d/	.	8a\J	.
.	.	.	.	16c/JJ)	.	.	.
!!LO:LB:g=original
=21	=21	=21	=21	=21	=21	=21	=21
!	!	!	!	!	!	!LO:TX:t=P:problem=all\right&colon; global	!
2.r	.	2.r	.	(<16Bn/LL	.	8g#X\L	.
.	.	.	.	16A/	.	.	.
.	.	.	.	16G#X/	.	(>8ee\J	.
.	.	.	.	16B/JJ	.	.	.
.	.	.	.	16d/LL	.	8f\L)	.
.	.	.	.	16c/	.	.	.
.	.	.	.	16B/	.	(>16dd\L	.
.	.	.	.	16c/JJ	.	16cc\JJ	.
.	.	.	.	16d/LL	.	8bn\L)	.
.	.	.	.	16e/	.	.	.
.	.	.	.	16f/	.	8aa\J	.
.	.	.	.	16e/JJ)	.	.	.
=22	=22	=22	=22	=22	=22	=22	=22
!	!	!LO:TX:t=P:problem=all\left&colon; global	!LO:DY:rj	!	!	!	!
2.r	.	(>16d\LL	f	8.d/L	.	8f\L	.
.	.	16c\	.	.	.	.	.
.	.	16Bn\	.	.	.	(>8cc\J	.
.	.	16A\JJ	.	16c/Jk	.	.	.
.	.	16G#X/LL	.	(<8Bn/L	.	8e\L)	.
.	.	16E/	.	.	.	.	.
.	.	16A/	.	16c/L	.	(>16cc\L	.
.	.	16B/JJ	.	16d/JJ	.	16bn\JJ	.
!	!	!LO:TX:t=P:problem=all\right&colon; global	!	!	!	!	!
.	.	16c\LL	.	8e/)	.	8a\L)	.
.	.	16e\	.	.	.	.	.
!	!	!LO:TX:t=P:problem=16\left	!	!	!	!	!
.	.	16f\	.	8r	.	8gg\J	.
!	!	!LO:TX:t=P:problem=16\left	!	!	!	!	!
.	.	16e\JJ	.	.	.	.	.
=23	=23	=23	=23	=23	=23	=23	=23
!	!	!	!	!	!	!LO:TX:t=P:problem=8\left	!
2.r	.	16d\LL	.	8r	.	8b-X\L	.
.	.	16c\	.	.	.	.	.
!	!	!	!	!	!LO:DY:rj	!	!
.	.	16B-X\	.	8d/	p	(>16gg\L	.
.	.	16A\JJ	.	.	.	16ff\JJ	.
!	!	!	!	!LO:TX:t=P:problem=all\left&colon; global	!	!	!
.	.	16Gn/LL	.	8b-X\	.	8ee\L)	.
.	.	16F/	.	.	.	.	.
.	.	16E/	.	4g/	.	8ccc'>\J	.
.	.	16C/JJ	.	.	.	.	.
.	.	16D/LL	.	.	.	8bb-'>\L	.
.	.	16E/	.	.	.	.	.
.	.	16F/	.	8e/	.	8gg'>\J	.
.	.	16G/JJ	.	.	.	.	.
=24	=24	=24	=24	=24	=24	=24	=24
!LO:TX:t=P:problem=all\right&colon; global	!	!	!	!	!	!	!
8F'>\	f	8F/)	.	8f/	.	8aa'>\L	.
4G^>\	.	8r	.	4b-\	.	8ff'>\J	.
.	.	4r	.	.	.	4eet>\	.
4A^>\	.	.	.	4cc\	.	.	.
.	.	.	.	.	.	(<32qqdd/LLL	.
.	.	.	.	.	.	32qqee/JJJ	.
!	!	!	!	!	!	!LO:TX:t=P:problem=all\left&colon; global	!
.	.	4r	.	.	.	8ff\)	.
16B-'>\LL	.	.	.	8g/	.	16r	.
16c'>\JJ	.	.	.	.	.	16ee\	.
!!LO:PB:g=original
=25	=25	=25	=25	=25	=25	=25	=25
!LO:TX:t=P:problem=all\middle&colon; global	!	!	!	!	!	!LO:TX:t=P:problem=all\right&colon; global	!
16d'>\LL	.	2.r	.	8f/L	.	8ff'>\L	.
(>16f\	.	.	.	.	.	.	.
16d\	.	.	.	8a/J	.	(>16ff\L	.
16c\JJ	.	.	.	.	.	16ee\JJ	.
16B-\LL)	.	.	.	4.f/	.	8dd\L)	.
(>16D\	p	.	.	.	.	.	.
16B-\	.	.	.	.	.	(>16dd\L	.
16A\JJ	.	.	.	.	.	16cc\JJ	.
16G\LL	.	.	.	.	.	8dd\L)	.
16f\	.	.	.	.	.	.	.
16e\	.	.	.	(<16g/LL	.	(>16ee\L	.
16d\JJ	.	.	.	16f/JJ	.	16ff\JJ	.
=26	=26	=26	=26	=26	=26	=26	=26
(>16c\LL)	.	2.r	.	8g/)	.	8ee\L)	.
16e\	.	.	.	.	.	.	.
!	!LO:DY:rj	!	!	!	!	!	!
16c\	f	.	.	8r	.	(>16ee\L	.
16B-\JJ	.	.	.	.	.	16dd\JJ	.
16A\LL)	.	.	.	4.e/	.	8cc\L)	.
(>16C'>\	.	.	.	.	.	.	.
!	!LO:DY:rj	!	!	!	!	!	!
16A\	p	.	.	.	.	(>16cc\L	.
16G\JJ	.	.	.	.	.	16b-\JJ	.
16F\LL	.	.	.	.	.	16a\LL)	.
16e\	.	.	.	.	.	(>16cc\	.
16d\	.	.	.	(<16f/LL	.	16dd\	.
16c\JJ)	.	.	.	16e/JJ	.	16ee\JJ	.
=27	=27	=27	=27	=27	=27	=27	=27
!	!	!	!	!	!	!LO:TX:t=P:problem=all\left&colon; global	!
(>16B-\LL	.	2.r	.	8f/L)	.	4dd\)	.
16d\	.	.	.	.	.	.	.
!	!LO:DY:rj	!	!	!	!	!	!
16B-\	f	.	.	(<16g/L	.	.	.
16A\JJ	.	.	.	16f/JJ	.	.	.
16G\LL	.	.	.	8e/L)	.	4.ee\	.
16BB-\)	.	.	.	.	.	.	.
(>16G\	p	.	.	(<16e/L	.	.	.
16F\JJ	.	.	.	16f/JJ	.	.	.
16E\LL	.	.	.	8.g/L)	.	.	.
16G\	.	.	.	.	.	.	.
16c\	.	.	.	.	.	8ee\	.
16B-\JJ)	.	.	.	16g/Jk	.	.	.
=28	=28	=28	=28	=28	=28	=28	=28
!	!	!	!	!	!	!LO:TX:t=P:problem=all\right&colon; global	!
(>16A\LL	.	2.r	.	8f/	.	8.ff\L	.
16G\	.	.	.	.	.	.	.
!	!	!	!	!LO:TX:t=P:problem=all\right&colon; global	!	!	!
16F\	.	.	.	(>4cc\	.	.	.
16E\JJ)	.	.	.	.	.	16gg\Jk	.
(>16F\LL	.	.	.	.	.	4aa\	.
16E\	.	.	.	.	.	.	.
16D\	.	.	.	16dd\LL	.	.	.
16C\JJ)	.	.	.	16ee\JJ	.	.	.
(>16D\LL	.	.	.	8ff\)	.	(>16bb-\LL	.
!	!	!	!	!	!	!LO:TX:t=P:problem=16\left	!
16C\	.	.	.	.	.	16aa\	.
16BB-\	.	.	.	8r	.	16gg\	.
16AA\JJ)	.	.	.	.	.	16ff\JJ)	.
!!LO:LB:g=original
=29	=29	=29	=29	=29	=29	=29	=29
!LO:TX:t=P:problem=all\middle&colon; global	!	!	!	!LO:TX:t=P:problem=all\middle&colon; global	!	!LO:TX:t=P:problem=all\middle&colon; global	!
8.A\L	.	2.r	.	(>16cc\LL	.	8ff\	.
.	.	.	.	16b-\	.	.	.
.	.	.	.	16a\	.	4cc\	.
(>16B-\Jk	.	.	.	16g\JJ)	.	.	.
8.F\L)	.	.	.	(<16a/LL	.	.	.
.	.	.	.	16g/	.	.	.
.	.	.	.	16f/	.	4a/	.
(>16G\Jk	.	.	.	16e/JJ)	.	.	.
8.D\L)	.	.	.	(<16f/LL	.	.	.
.	.	.	.	16e/	.	.	.
.	.	.	.	16d/	.	8a/	.
(>16E\Jk	.	.	.	16c#X/JJ)	.	.	.
=30	=30	=30	=30	=30	=30	=30	=30
!	!	!LO:TX:t=P:problem=all\middle&colon; global	!	!	!	!	!
8F\)	.	8d'>\	f	8d/	.	8a/	.
8r	.	4e^>\	.	8r	.	8r	.
!	!	!	!	!	!	!LO:TX:t=P:4\left:problem	!
4.D\	.	.	.	4r	.	4.dd\	.
.	.	4f^>\	.	.	.	.	.
.	.	.	.	4r	.	.	.
!	!	!	!	!	!	!LO:TX:t=P:problem=all\right&colon; global	!
8D\	.	16g'>\LL	.	.	.	(>16b-\LL	.
.	.	16a'>\JJ	.	.	.	16cc\JJ)	.
=31	=31	=31	=31	=31	=31	=31	=31
8.G\L	.	16b-'>\LL	.	2.r	.	16dd\	.
.	.	(>16dd\	.	.	.	16r	.
.	.	16b-\	.	.	.	(>4gg\	f
16F\Jk	.	16a\JJ	.	.	.	.	.
8.E\L	.	16g\LL)	.	.	.	.	.
.	.	(>16B-\	p	.	.	.	.
!	!	!	!	!	!	!LO:TX:t=P:problem=all\middle&colon; global	!
.	.	16g\	.	.	.	8cc\)	.
16D\Jk	.	16f\JJ	.	.	.	.	.
8C/	.	16e\LL	.	.	.	16r	.
.	.	16d\	.	.	.	(>16bb-\LL	p
8r	.	16c\	.	.	.	16aa\	.
.	.	16b-\JJ)	.	.	.	16gg\JJ	.
=32	=32	=32	=32	=32	=32	=32	=32
!LO:TX:t=P:problem=8\left	!	!	!	!	!	!	!
8.F\L	.	16a'>\LL	.	2.r	.	16cc\)	.
.	.	(>16cc\	f	.	.	16r	.
.	.	16a\	.	.	.	(>4ff\	f
!LO:TX:t=P:problem=16\right	!	!	!	!	!	!	!
16E\Jk	.	16g\JJ	.	.	.	.	.
!	!	!LO:TX:t=P:problem=16\right	!	!	!	!	!
8.D\L	.	16f\LL	.	.	.	.	.
.	.	16A\)	.	.	.	.	.
!	!	!LO:TX:t=P:problem=16\right	!LO:DY:rj	!	!	!	!
.	.	(>16f\	p	.	.	8b-\)	.
16C\Jk	.	16e\JJ	.	.	.	.	.
8BB-/	.	16d\LL	.	.	.	16r	.
.	.	16cc\	.	.	.	(>16aa\LL	p
8r	.	16b-\	.	.	.	16gg\	.
.	.	16a\JJ)	.	.	.	16ff\JJ)	.
!!LO:LB:g=original
=33	=33	=33	=33	=33	=33	=33	=33
!	!	!LO:TX:t=P:problem=all\middle&colon; global	!	!	!	!	!
8r	.	(>16g\LL	<	2.r	.	(>16ee\LL	<
.	.	16f\	.	.	.	16dd\	.
4C'>/	.	16e\	.	.	.	16cc\	.
.	.	16d\JJ	.	.	.	16b-\JJ	.
.	.	16c\LL	.	.	.	(<16a/LL)	.
.	.	16B-\JJ)	.	.	.	16g/JJ)	.
!LO:TX:t=P:problem=all\middle&colon; global	!	!	!	!	!	!	!
8e\	.	16r	[	.	.	16r	[
.	.	[>16B-\	.	.	.	[<16g/	>
(<8C/L	.	8B-/L]	>	.	.	8g/L]	.
8C#X/J	.	(<16A/L	.	.	.	(16f/L	.
.	.	16G/JJ	]]	.	.	16e/JJ	]
=34	=34	=34	=34	=34	=34	=34	=34
!	!	!	!	!LO:TX:t=P:problem=8\left	!	!	!
8D\L)	.	8F/)	.	8b-'>\	f	8f/)	.
!	!	!	!	!LO:TX:t=P:problem=8\middle&colon; global	!	!	!
(>16D\L	.	8r	.	4cc^>\	.	8r	.
16Cn\JJ	.	.	.	.	.	.	.
8BB-/)	.	(>8f\L	p	.	.	4r	.
4B-\	.	16b-\L	.	4dd^>\	.	.	.
.	.	16a\JJ	.	.	.	.	.
.	.	16g\LL	.	.	.	4r	.
.	.	16f\	.	.	.	.	.
(>16c\LL	.	16e-X\	.	16ee-X'>\LL	.	.	.
16B-\JJ	.	16d\JJ)	.	16ff'>\JJ	.	.	.
=35	=35	=35	=35	=35	=35	=35	=35
8E-X\)	.	8e-X\L	.	16gg'>\LL	.	2.r	.
.	.	.	.	(>16bb-\	.	.	.
8r	.	(>16ee-X\L	.	16gg\	.	.	.
.	.	16dd\JJ	.	16ff\JJ	.	.	.
!LO:TX:t=P:4\left:problem	!	!	!	!	!	!	!
4.A\	.	8cc\L)	.	16ee-X\LL	.	.	.
.	.	.	.	16g\)	p	.	.
.	.	(>16cc\L	.	(>16ee-\	.	.	.
.	.	16b-\JJ	.	16dd\JJ	.	.	.
!	!	!LO:TX:t=P:problem=8\right	!	!	!	!	!
.	.	8a\L)	.	16cc\LL	.	.	.
.	.	.	.	16bb-\	.	.	.
!	!	!LO:TX:t=P:problem=8\right	!	!	!	!	!
8AA/	.	8c\J	.	16aa\	.	.	.
.	.	.	.	16gg\JJ)	.	.	.
=36	=36	=36	=36	=36	=36	=36	=36
8AA/L	.	8d\L	.	16ff'>\LL	.	2.r	.
.	.	.	.	(>16aa\	f	.	.
(<16BB-/L	.	(>16dd\L	.	16ff\	.	.	.
16C/JJ	.	16cc\JJ	.	16ee-X\JJ	.	.	.
8D\L)	.	8b-\L)	.	16dd\LL	.	.	.
.	.	.	.	16f\)	p	.	.
8F\J	.	(>16b-\L	.	(>16dd\	.	.	.
.	.	16a\JJ	.	16cc\JJ	.	.	.
4G\	.	8g\L)	.	16b-\LL	.	.	.
.	.	.	.	16aa\	.	.	.
.	.	8B-\J	.	16gg\	.	.	.
!	!	!	!	!LO:TX:t=P:problem=16\left	!	!	!
.	.	.	.	16ff\JJ)	.	.	.
!!LO:PB:g=original
=37	=37	=37	=37	=37	=37	=37	=37
!LO:TX:t=P:4\left:problem	!	!	!	!	!	!	!
4.A\	.	8c\L	.	16ee-X\LL	.	2.r	.
.	.	.	.	(>16gg\	.	.	.
.	.	(>16e-X\L	.	16ee-\	f	.	.
.	.	16f\JJ	.	16dd\JJ	.	.	.
.	.	8g\L)	.	16cc\LL)	.	.	.
.	.	.	.	(>16ee-\	p	.	.
8G\	.	8e-\	.	16cc\	.	.	.
.	.	.	.	16b-\JJ	.	.	.
!LO:TX:t=P:4\left:problem	!	!	!	!	!	!	!
[>4F\	.	8f\	.	16a\LL	.	.	.
.	.	.	.	16gg\	.	.	.
.	.	8A\J	.	16ff\	.	.	.
.	.	.	.	16ee-\JJ	.	.	.
=38	=38	=38	=38	=38	=38	=38	=38
!	!	!	!	!LO:TX:t=P:problem=8\left	!	!	!
(>16F\LL]	.	8.B-/L	.	8dd\)	.	2.r	.
16E\	.	.	.	.	.	.	.
16D\	.	.	.	8r	.	.	.
16C\JJ	.	16F/Jk	.	.	.	.	.
(<16BB-/LL)	.	(<16G/LL	.	4.d/	.	.	.
16AA/	.	16F/	.	.	.	.	.
16GG/	.	16E/	.	.	.	.	.
16FF/JJ	.	16F/JJ	.	.	.	.	.
16EE/LL	.	16G/LL	.	.	.	.	.
16FF/	.	16A/	.	.	.	.	.
16GG/	.	16B-/	.	[>8dd\	.	.	.
16FF/JJ)	.	16A/JJ)	.	.	.	.	.
=39	=39	=39	=39	=39	=39	=39	=39
4FF#X/	.	4A/	.	16dd\LL]	.	2.r	.
.	.	.	.	(>16cc\	.	.	.
.	.	.	.	16b-\	.	.	.
.	.	.	.	16a\JJ	.	.	.
8.GG/L	.	8.B-/L	.	16g/LL	.	.	.
.	.	.	.	16f/	.	.	.
.	.	.	.	16e/	.	.	.
16BB-/Jk	.	16G/Jk	.	16d/JJ	.	.	.
(<16C/LL	.	(<16A/LL	.	8d/L)	.	.	.
16BB-/	.	16G/	.	.	.	.	.
16AA/	.	16F#X/	.	8d/J	.	.	.
16BB-/JJ	.	16G/JJ)	.	.	.	.	.
=40	=40	=40	=40	=40	=40	=40	=40
4GG/)	.	8B-\L	.	4d/	.	8g'</	f
.	.	(>16d\L	.	.	.	4a^>/	.
.	.	16c\JJ	.	.	.	.	.
(>16G\LL	.	4.B-\)	.	8G/L	.	.	.
16F\	.	.	.	.	.	.	.
16E-X\	.	.	.	(<16g/L	.	4b-^>\	.
16D\JJ	.	.	.	16f/JJ	.	.	.
8C\L)	.	.	.	16e-X/LL	.	.	.
.	.	.	.	16d/	.	.	.
8G\J	.	(>16e-X\LL	.	16c/	.	16cc'>\LL	.
.	.	16d\JJ)	.	16B-/JJ)	.	16dd'>\JJ	.
!!LO:LB:g=original
=41	=41	=41	=41	=41	=41	=41	=41
!LO:TX:t=P:problem=8\left&colon; global	!	!	!	!	!	!LO:TX:t=P:problem=all\right&colon; global	!
8E-X\	.	8g\L	.	8c\L	.	16ee-X\LL	.
.	.	.	.	.	.	(>16gg\	.
!	!	!	!	!LO:TX:t=P:problem=16\left	!	!	!
4EE-X/	.	8e-X\J	.	(>16cc\L	.	16ee-\	.
!	!	!	!	!LO:TX:t=P:problem=16\left	!	!	!
.	.	.	.	16b-\JJ	.	16dd\JJ	.
.	.	8f\L	.	8a/L)	.	16cc\LL)	.
.	.	.	.	.	.	(>16e-X\	p
8E-\	.	(>16f\L	.	(<16a/L	.	16cc\	.
.	.	16g\JJ	.	16g/JJ	.	16b-\JJ	.
!LO:TX:t=P:problem=8\middle	!	!	!	!	!	!LO:TX:t=P:problem=all\middle&colon; global	!
8F\L	.	8a\L)	.	8f/L)	.	16a\LL	.
.	.	.	.	.	.	16gg\	.
!LO:TX:t=P:problem=8\right	!	!LO:TX:t=P:problem=8\right	!	!	!	!	!
[<8FF\J	.	8cc\J	.	8a/J	.	16ff\	.
.	.	.	.	.	.	16ee-\JJ	.
=42	=42	=42	=42	=42	=42	=42	=42
8FF/L]	.	[>4f\	.	8A/L	.	16dd\LL)	.
.	.	.	.	.	.	(>16ff\	f
(<16GG/L	.	.	.	(<16B-/L	.	16dd\	.
16AA/JJ	.	.	.	16c/JJ	.	16cc\JJ	.
4.BB-/)	.	8f\L]	.	4d/)	.	16b-\LL)	.
.	.	.	.	.	.	(>16d\	.
!	!	!	!	!	!	!	!LO:DY:rj
.	.	(>16g\L	.	.	.	16b-\	p
.	.	16f\JJ	.	.	.	16a\JJ	.
.	.	4e-X\)	.	8e-X/L	.	16g\LL	.
.	.	.	.	.	.	16b-\	.
(<16C/LL	.	.	.	8g/J	.	16ee-X\	.
16BB-/JJ	.	.	.	.	.	16dd\JJ	.
=43	=43	=43	=43	=43	=43	=43	=43
8AA/)	.	8en\	.	8g/	.	16cc#X\LL)	.
.	.	.	.	.	.	(>16dd\	.
8r	.	4e\	.	8r	.	16een\	.
.	.	.	.	.	.	16ff\JJ	.
*2\right	*	*	*	*	*	*	*
!	!	!	!	!	!	!LO:TX:b:t=cre_scen_do:problem=dynamics with extention lines	!LO:HP:b:t=cre-scen-do:ext=ud
[>2A\	sf	.	.	(>16b-\LL	.	16gg\LL	<
.	.	.	.	16a\	.	16ff\	.
.	.	[>8b-\	.	16g\	.	16ee\	.
.	.	.	.	16f\JJ)	.	16dd\JJ	.
.	.	(>16b-\LL]	.	8g/	.	16ee\LL)	.
.	.	16a\	.	.	.	(>16ff\	.
.	.	16g\	.	8r	.	16gg\	.
.	.	16f\JJ	.	.	.	16aa\JJ	.
=44	=44	=44	=44	=44	=44	=44	=44
!	!	!	!	!LO:TX:t=P:problem=8\left	!	!	!
2A\]	.	8e\)	.	8cc#X\	.	16bb-\LL	.
.	.	.	.	.	.	16aa\	.
.	.	8r	.	8r	.	16gg\	.
.	.	.	.	.	.	16ff\JJ	.
.	.	4..e\	sf	4..cc#\	sf	16gg\LL)	.
.	.	.	.	.	.	(>16aa\	.
.	.	.	.	.	.	16bb-\	.
.	.	.	.	.	.	16ccc\JJ	.
!LO:TX:t=P:problem=8\right	!	!	!	!	!	!	!
8.AA\L	.	.	.	.	.	16ddd\LL	.
.	.	.	.	.	.	16ccc\	.
.	.	.	.	.	.	16bb-\	.
!LO:TX:t=P:problem=16\left	!	!LO:TX:t=P:problem=16\left	!	!	!	!	!
16A\Jk	.	16f\	.	16dd\	.	16aa\JJ	.
!!LO:LB:g=original
=45	=45	=45	=45	=45	=45	=45	=45
*	*	*2\right	*	*2\right	*	*	*
!	!	!	!	!	!	!LO:TX:t=P:problem=all\middle&colon; global	!
!	!	!	!	!	!	!LO:TX:t=P:problem=brak zakończenia łuku (początek pięciolinii)	!
(16B-\LL	.	[>2.g\	.	2.dd\	.	16gg\LL)	.
!	!LO:DY:rj	!	!	!	!	!	!
16A\	f	.	.	.	.	(>16aa\	.
16G\	.	.	.	.	.	16bb-\	.
16A\JJ	.	.	.	.	.	16ccc\JJ	.
16G\LL	.	.	.	.	.	16bb-\LL	.
16F\	.	.	.	.	.	16aa\	.
16E\	.	.	.	.	.	16gg\	.
16F\JJ	.	.	.	.	.	16ff\JJ	.
16G\LL	.	.	.	.	.	16ee\LL)	.
16A\	.	.	.	.	.	(>16ff\	.
16B-\	.	.	.	.	.	16gg\	.
16A\JJ)	.	.	.	.	.	16aa\JJ)	.
=46	=46	=46	=46	=46	=46	=46	=46
!LO:TX:t=P:problem=8\left	!	!	!	!	!	!	!
8A\	.	8g\L]	.	(>4cc#X\	.	(>16aa\LL	.
.	.	.	.	.	.	16gg\	[
8r	.	(>16a\L	.	.	.	16ff\	.
.	.	16g\JJ	.	.	.	16ee\JJ	.
!	!	!	!	!LO:TX:t=P:problem=8\left	!	!	!
4.AA/	.	16f\LL	.	8dd\)	.	16dd\LL	.
.	.	(>16e\)	.	.	.	16ee\	.
.	.	16d\	.	4a/	.	16ff\	.
.	.	16f\JJ	.	.	.	16dd\JJ	.
!	!	!LO:TX:t=P:problem=16\right	!	!	!	!	!
.	.	16a\LL	.	.	.	16ff\LL	.
.	.	16g\	.	.	.	16ee\	.
(<16BBn/LL	.	16f\	.	8a/	.	16dd\	.
16C#X/JJ	.	16e\JJ	.	.	.	16ee\JJ)	.
=47	=47	=47	=47	=47	=47	=47	=47
!	!	!LO:TX:t=P:problem=8\left	!	!	!	!LO:TX:t=P:problem=8\left	!
8D'>\)	.	8f\)	.	8a/	.	8dd\	.
4E^>\	.	8r	.	8r	.	8r	.
!	!	!	!	!	!	!	!LO:DY:rj
.	.	4r	.	4r	.	[>2d/	sf
4F^>\	.	.	.	.	.	.	.
.	.	4r	.	4r	.	.	.
16G'>\LL	.	.	.	.	.	.	.
16A'>\JJ	.	.	.	.	.	.	.
=48	=48	=48	=48	=48	=48	=48	=48
!	!	!LO:TX:t=P:problem=8\left	!	!	!	!	!
16B-\LL	.	8d'>\	f	2.r	.	8d/]	.
(>16d\	.	.	.	.	.	.	.
16B-\	.	4e^>\	.	.	.	8r	.
16A\JJ	.	.	.	.	.	.	.
*	*	*	*	*	*	*2\right	*
!	!	!	!	!	!	!	!LO:DY:a
16G\LL)	.	.	.	.	.	[>2dd\	sf
(>16B-\	.	.	.	.	.	.	.
16A\	.	4f^>\	.	.	.	.	.
16G\JJ	.	.	.	.	.	.	.
16A\LL)	.	.	.	.	.	.	.
(>16c\	.	.	.	.	.	.	.
!	!	!LO:TX:t=P:problem=16\left	!	!	!	!	!
16B-\	.	16g'>\LL	.	.	.	.	.
!	!	!LO:TX:t=P:problem=16\left	!	!	!	!	!
16A\JJ)	.	16a'>\JJ	.	.	.	.	.
!!LO:PB:g=original
=49	=49	=49	=49	=49	=49	=49	=49
16G'>\LL	.	16b-'>\LL	.	8d'</	f	2.dd\]	.
(>16F\J	.	(>16dd\	.	.	.	.	.
[>8E\J)	.	16cc\	.	4e^</	.	.	.
.	.	16b-\JJ	.	.	.	.	.
16E\LL]	.	16g\LL)	.	.	.	.	.
(>16D\J	.	(>16b-\	.	.	.	.	.
8C#X\J	.	16a\	.	4f^</	.	.	.
.	.	16g\JJ	.	.	.	.	.
!	!	!LO:TX:t=P:4\right:problem	!	!	!	!	!
16D\LL)	.	[>4f\)	.	.	.	.	.
(>16Cn\	.	.	.	.	.	.	.
16BB-\	.	.	.	16g'</LL	.	.	.
16AA\JJ	.	.	.	16a'</JJ	.	.	.
=50	=50	=50	=50	=50	=50	=50	=50
!	!	!	!	!	!	!LO:TX:t=P:problem=8\left	!
8GG/)	.	2.f\_>	.	16b-'>\LL	.	8dd'>\	f
.	.	.	.	(>16dd\	.	.	.
8r	.	.	.	16b-\	.	4ee^>\	.
.	.	.	.	16a\JJ	.	.	.
!	!LO:DY:a	!	!	!	!	!	!
(>2d\	sf	.	.	16g\LL)	.	.	.
.	.	.	.	(>16b-\	.	.	.
.	.	.	.	16a\	.	4ff^>\	.
.	.	.	.	16g\JJ	.	.	.
.	.	.	.	16a\LL)	.	.	.
.	.	.	.	(>16cc\	.	.	.
.	.	.	.	16b-\	.	16gg'>\LL	.
.	.	.	.	16a\JJ	.	16aa'>\JJ	.
=51	=51	=51	=51	=51	=51	=51	=51
16G\LL)	.	4f\_>	.	8dd\)	.	16bb-'>\LL	.
(>16c\	.	.	.	.	.	(>16aa\	.
16B-\	.	.	.	8r	.	16gg\	.
16A\JJ	.	.	.	.	.	16ff\JJ	.
!	!	!LO:TX:t=P:problem=8\left	!	!	!	!	!
8c\L)	.	8.f\L]	.	[>2a/	sf	16aa\LL)	.
.	.	.	.	.	.	(>16gg\	.
8c#X\	.	.	.	.	.	16ff\	.
!	!	!LO:TX:t=P:problem=16\right	!	!	!	!	!
.	.	(>16g\Jk	.	.	.	16ee\JJ	.
!	!	!LO:TX:t=P:problem=16\right&colon; global	!	!	!	!	!
8d\	.	16a\LL	f	.	.	16ff\LL)	.
.	.	16g\	.	.	.	(>16ee\	.
8A\J	.	16f\	.	.	.	16dd\	.
.	.	16e\JJ	.	.	.	16cc#X\JJ	.
=52	=52	=52	=52	=52	=52	=52	=52
!	!	!	!	!	!	!LO:TX:t=P:problem=8\left	!
8d\	.	8f\)	.	8a/]	.	8dd\)	.
8r	.	8r	.	8r	.	8r	.
!	!LO:DY:rj	!LO:TX:t=P:4\right:problem	!LO:DY:rj	!LO:TX:t=P:4\rigt:problem	!	!	!
4DD/ 4AA 4D	sf	4F\ 4d	sf	4a\ 4aa	sf	4dd\ 4ddd	sf
4r	.	4r	.	4r	.	4r	.
==	==	==	==	==	==	==	==
*-	*-	*-	*-	*-	*-	*-	*-
!!!system-decoration: [(g1)]
!!!RDF**kern: > = above
!!!RDF**kern: < = below
!!!ENC: Katarzyna Serwa
!!!END: 2021-10-30
!!!EED: Jędrzej Mróz
!!!ESR: 2021-11-04
